app/assets/images/niveauX2-blanc.svg

<svg width="20" height="20" viewBox="0 0 20 20" fill="none" xmlns="http://www.w3.org/2000/svg">
<path d="M6.6035 5.16685C6.65683 5.16685 6.70016 5.18463 6.7335 5.22018C6.76683 5.25574 6.7835 5.30018 6.7835 5.35352V7.29685C6.7835 7.35463 6.7635 7.40352 6.7235 7.44352C6.68572 7.48129 6.63794 7.50018 6.58016 7.50018C6.54905 7.50018 6.51794 7.49574 6.48683 7.48685C6.45794 7.47574 6.43683 7.46129 6.4235 7.44352L5.20016 5.89018V7.31352C5.20016 7.36685 5.18238 7.41129 5.14683 7.44685C5.1135 7.4824 5.06905 7.50018 5.0135 7.50018C4.96016 7.50018 4.91683 7.4824 4.8835 7.44685C4.85016 7.41129 4.8335 7.36685 4.8335 7.31352V5.37018C4.8335 5.3124 4.85238 5.26463 4.89016 5.22685C4.93016 5.18685 4.97905 5.16685 5.03683 5.16685C5.07016 5.16685 5.10239 5.17352 5.1335 5.18685C5.16683 5.20018 5.19127 5.21796 5.20683 5.24018L6.42016 6.78685V5.35352C6.42016 5.30018 6.43683 5.25574 6.47016 5.22018C6.50572 5.18463 6.55016 5.16685 6.6035 5.16685Z" fill="#FBF9FA"/>
<path d="M7.628 7.29685C7.628 7.35463 7.60911 7.40352 7.57133 7.44352C7.53356 7.48129 7.48578 7.50018 7.428 7.50018C7.37022 7.50018 7.32245 7.48129 7.28467 7.44352C7.24689 7.40352 7.228 7.35463 7.228 7.29685V5.92018C7.228 5.8624 7.24689 5.81463 7.28467 5.77685C7.32245 5.73685 7.37022 5.71685 7.428 5.71685C7.48578 5.71685 7.53356 5.73685 7.57133 5.77685C7.60911 5.81463 7.628 5.8624 7.628 5.92018V7.29685ZM7.42467 5.50018C7.34911 5.50018 7.29578 5.48796 7.26467 5.46352C7.23356 5.43907 7.218 5.39574 7.218 5.33352V5.27018C7.218 5.20796 7.23467 5.16463 7.268 5.14018C7.30133 5.11574 7.35467 5.10352 7.428 5.10352C7.50578 5.10352 7.56022 5.11574 7.59133 5.14018C7.62245 5.16463 7.638 5.20796 7.638 5.27018V5.33352C7.638 5.39796 7.62133 5.4424 7.588 5.46685C7.55689 5.48907 7.50245 5.50018 7.42467 5.50018Z" fill="#FBF9FA"/>
<path d="M9.4091 5.72018C9.46243 5.72018 9.50687 5.73796 9.54243 5.77352C9.57798 5.80685 9.59576 5.84907 9.59576 5.90018C9.59576 5.92685 9.58687 5.96018 9.5691 6.00018L8.94576 7.37352C8.93021 7.41129 8.90687 7.44129 8.87576 7.46352C8.84687 7.48574 8.81354 7.49796 8.77576 7.50018L8.74576 7.50352C8.70798 7.50352 8.67243 7.4924 8.6391 7.47018C8.60798 7.44574 8.58354 7.41352 8.56576 7.37352L7.94576 6.00018C7.93021 5.96463 7.92243 5.92907 7.92243 5.89352C7.92243 5.84907 7.94132 5.80907 7.9791 5.77352C8.01687 5.73574 8.06354 5.71685 8.1191 5.71685C8.16132 5.71685 8.20021 5.72796 8.23576 5.75018C8.27132 5.7724 8.29798 5.80352 8.31576 5.84352L8.77576 6.89685L9.23243 5.84685C9.25021 5.80463 9.27465 5.7724 9.30576 5.75018C9.33687 5.72796 9.37132 5.71796 9.4091 5.72018Z" fill="#FBF9FA"/>
<path d="M11.4946 6.56685C11.4923 6.62018 11.4712 6.66352 11.4312 6.69685C11.3912 6.73018 11.3446 6.74685 11.2912 6.74685H10.1912C10.2179 6.87796 10.279 6.98129 10.3746 7.05685C10.4701 7.13018 10.5779 7.16685 10.6979 7.16685C10.789 7.16685 10.8601 7.15907 10.9112 7.14352C10.9623 7.12574 11.0023 7.10796 11.0312 7.09018C11.0623 7.07018 11.0835 7.05685 11.0946 7.05018C11.1346 7.03018 11.1723 7.02018 11.2079 7.02018C11.2546 7.02018 11.2946 7.03685 11.3279 7.07018C11.3612 7.10352 11.3779 7.1424 11.3779 7.18685C11.3779 7.24685 11.3468 7.30129 11.2846 7.35018C11.2223 7.40129 11.139 7.44463 11.0346 7.48018C10.9301 7.51574 10.8246 7.53352 10.7179 7.53352C10.5312 7.53352 10.3679 7.49463 10.2279 7.41685C10.0901 7.33907 9.98345 7.2324 9.9079 7.09685C9.83234 6.95907 9.79456 6.80463 9.79456 6.63352C9.79456 6.4424 9.83456 6.27463 9.91456 6.13018C9.99456 5.98574 10.1001 5.87574 10.2312 5.80018C10.3623 5.7224 10.5023 5.68352 10.6512 5.68352C10.7979 5.68352 10.9357 5.72352 11.0646 5.80352C11.1957 5.88352 11.3001 5.99129 11.3779 6.12685C11.4557 6.2624 11.4946 6.40907 11.4946 6.56685ZM10.6512 6.05018C10.3935 6.05018 10.2412 6.17129 10.1946 6.41352H11.0679V6.39018C11.059 6.29685 11.0135 6.21685 10.9312 6.15018C10.849 6.08352 10.7557 6.05018 10.6512 6.05018Z" fill="#FBF9FA"/>
<path d="M13.2845 5.68352C13.3423 5.68352 13.3901 5.7024 13.4278 5.74018C13.4656 5.77796 13.4845 5.82685 13.4845 5.88685V7.29685C13.4845 7.35463 13.4656 7.40352 13.4278 7.44352C13.3901 7.48129 13.3423 7.50018 13.2845 7.50018C13.2267 7.50018 13.179 7.48129 13.1412 7.44352C13.1056 7.40574 13.0867 7.35796 13.0845 7.30018C13.029 7.36463 12.9534 7.42018 12.8578 7.46685C12.7645 7.51129 12.6656 7.53352 12.5612 7.53352C12.4078 7.53352 12.269 7.49463 12.1445 7.41685C12.0201 7.33685 11.9212 7.22685 11.8478 7.08685C11.7767 6.94685 11.7412 6.78796 11.7412 6.61018C11.7412 6.4324 11.7767 6.27352 11.8478 6.13352C11.919 5.99129 12.0156 5.88129 12.1378 5.80352C12.2623 5.72352 12.399 5.68352 12.5478 5.68352C12.6545 5.68352 12.7545 5.70352 12.8478 5.74352C12.9412 5.78129 13.0201 5.83018 13.0845 5.89018V5.88685C13.0845 5.82907 13.1034 5.78129 13.1412 5.74352C13.179 5.70352 13.2267 5.68352 13.2845 5.68352ZM12.6112 7.16685C12.7556 7.16685 12.8734 7.11463 12.9645 7.01018C13.0556 6.90352 13.1012 6.77018 13.1012 6.61018C13.1012 6.45018 13.0556 6.31685 12.9645 6.21018C12.8734 6.10352 12.7556 6.05018 12.6112 6.05018C12.469 6.05018 12.3523 6.10352 12.2612 6.21018C12.1701 6.31685 12.1245 6.45018 12.1245 6.61018C12.1245 6.77018 12.169 6.90352 12.2578 7.01018C12.349 7.11463 12.4667 7.16685 12.6112 7.16685Z" fill="#FBF9FA"/>
<path d="M15.2088 5.71685C15.2666 5.71685 15.3143 5.73685 15.3521 5.77685C15.3899 5.81463 15.4088 5.8624 15.4088 5.92018V6.76685C15.4088 7.00685 15.3421 7.19463 15.2088 7.33018C15.0777 7.46574 14.8899 7.53352 14.6454 7.53352C14.401 7.53352 14.2132 7.46574 14.0821 7.33018C13.951 7.19463 13.8854 7.00685 13.8854 6.76685V5.92018C13.8854 5.8624 13.9043 5.81463 13.9421 5.77685C13.9799 5.73685 14.0277 5.71685 14.0854 5.71685C14.1432 5.71685 14.191 5.73685 14.2288 5.77685C14.2666 5.81463 14.2854 5.8624 14.2854 5.92018V6.76685C14.2854 6.9024 14.3154 7.00352 14.3754 7.07018C14.4354 7.13463 14.5254 7.16685 14.6454 7.16685C14.7677 7.16685 14.8588 7.13463 14.9188 7.07018C14.9788 7.00352 15.0088 6.9024 15.0088 6.76685V5.92018C15.0088 5.8624 15.0277 5.81463 15.0654 5.77685C15.1032 5.73685 15.151 5.71685 15.2088 5.71685Z" fill="#FBF9FA"/>
<path fill-rule="evenodd" clip-rule="evenodd" d="M10 18.75C14.8325 18.75 18.75 14.8325 18.75 10C18.75 5.16751 14.8325 1.25 10 1.25C5.16751 1.25 1.25 5.16751 1.25 10C1.25 14.8325 5.16751 18.75 10 18.75ZM10 20C15.5228 20 20 15.5228 20 10C20 4.47715 15.5228 0 10 0C4.47715 0 0 4.47715 0 10C0 15.5228 4.47715 20 10 20Z" fill="#FBF9FA"/>
<path d="M9.80705 13.7781C9.87705 13.8714 9.91205 13.9794 9.91205 14.1019C9.91205 14.2535 9.85663 14.3789 9.7458 14.4781C9.63497 14.5773 9.51538 14.6269 9.38705 14.6269C9.21788 14.6269 9.07497 14.551 8.9583 14.3994L7.4008 12.3256L5.88705 14.3819C5.77038 14.5452 5.62455 14.6269 5.44955 14.6269C5.32122 14.6269 5.21038 14.5802 5.11705 14.4869C5.02372 14.3935 4.97705 14.2856 4.97705 14.1631C4.97705 14.0348 5.0208 13.9152 5.1083 13.8044L6.79705 11.5206L5.1083 9.28061C5.03247 9.18727 4.99455 9.08227 4.99455 8.96561C4.99455 8.81977 5.04997 8.69436 5.1608 8.58936C5.27163 8.48436 5.39413 8.43186 5.5283 8.43186C5.69747 8.43186 5.84038 8.50769 5.95705 8.65936L7.49705 10.7069L9.00205 8.70311C9.06038 8.62144 9.12747 8.56019 9.2033 8.51936C9.27913 8.47269 9.35497 8.44936 9.4308 8.44936C9.55913 8.44936 9.67288 8.50186 9.77205 8.60686C9.87122 8.70602 9.9208 8.81686 9.9208 8.93936C9.9208 9.05019 9.88288 9.15519 9.80705 9.25436L8.1008 11.5031L9.80705 13.7781Z" fill="#FBF9FA"/>
<path d="M14.2544 13.6206C14.3944 13.6206 14.5111 13.6673 14.6044 13.7606C14.6978 13.8539 14.7444 13.9706 14.7444 14.1106C14.7444 14.2448 14.6978 14.3585 14.6044 14.4519C14.5111 14.5394 14.3944 14.5831 14.2544 14.5831H11.2794C11.1278 14.5831 11.0082 14.5364 10.9207 14.4431C10.8332 14.3498 10.7894 14.2302 10.7894 14.0844C10.7894 13.9385 10.8419 13.8102 10.9469 13.6994L12.8544 11.6606C13.0703 11.4273 13.2394 11.1939 13.3619 10.9606C13.4903 10.7214 13.5544 10.5027 13.5544 10.3044C13.5544 10.0419 13.4611 9.81436 13.2744 9.62186C13.0878 9.42936 12.8719 9.33311 12.6269 9.33311C12.4578 9.33311 12.2857 9.39144 12.1107 9.50811C11.9415 9.61894 11.7869 9.76769 11.6469 9.95436C11.5419 10.0944 11.4078 10.1644 11.2444 10.1644C11.1161 10.1644 10.9965 10.1148 10.8857 10.0156C10.7807 9.91644 10.7282 9.80561 10.7282 9.68311C10.7282 9.59561 10.7574 9.50811 10.8157 9.42061C10.874 9.32727 10.9615 9.22227 11.0782 9.10561C11.2999 8.88394 11.5565 8.70602 11.8482 8.57186C12.1399 8.43769 12.4199 8.37061 12.6882 8.37061C13.0732 8.37061 13.4115 8.45227 13.7032 8.61561C13.9949 8.77894 14.2194 9.00352 14.3769 9.28936C14.5344 9.57519 14.6132 9.89894 14.6132 10.2606C14.6132 10.6164 14.5169 10.9839 14.3244 11.3631C14.1378 11.7364 13.884 12.0952 13.5632 12.4394L12.4519 13.6206H14.2544Z" fill="#FBF9FA"/>
</svg>

<svg width="20" height="20" fill="none" xmlns="http://www.w3.org/2000/svg"><path d="M6.604 5.167a.17.17 0 01.13.053c.033.036.05.08.05.134v1.943a.2.2 0 01-.204.203.338.338 0 01-.093-.013.14.14 0 01-.064-.043L5.2 5.89v1.424a.18.18 0 01-.053.133.174.174 0 01-.134.053.17.17 0 01-.13-.053.187.187 0 01-.05-.133V5.37a.2.2 0 01.203-.203c.034 0 .066.007.098.02a.158.158 0 01.073.053L6.42 6.787V5.354c0-.054.017-.098.05-.134a.18.18 0 01.134-.053zM7.628 7.297a.206.206 0 01-.057.147.194.194 0 01-.143.056.194.194 0 01-.143-.056.206.206 0 01-.057-.147V5.92c0-.058.019-.105.057-.143a.189.189 0 01.143-.06c.058 0 .106.02.143.06a.194.194 0 01.057.143v1.377zM7.425 5.5c-.076 0-.13-.012-.16-.036-.031-.025-.047-.068-.047-.13V5.27c0-.062.017-.105.05-.13.033-.024.087-.036.16-.036.078 0 .132.012.163.036.031.025.047.068.047.13v.064c0 .064-.017.108-.05.133-.031.022-.086.033-.163.033zM9.41 5.72a.18.18 0 01.132.054.166.166 0 01.054.126c0 .027-.01.06-.027.1l-.623 1.374a.203.203 0 01-.17.126l-.03.004a.189.189 0 01-.107-.034.249.249 0 01-.073-.096L7.946 6a.264.264 0 01-.024-.106c0-.045.02-.085.057-.12a.19.19 0 01.14-.057c.042 0 .081.011.117.033a.206.206 0 01.08.094l.46 1.053.456-1.05a.22.22 0 01.074-.097.157.157 0 01.103-.03zM11.495 6.567a.171.171 0 01-.064.13.212.212 0 01-.14.05h-1.1a.51.51 0 00.507.42.765.765 0 00.213-.023.63.63 0 00.184-.094c.04-.02.077-.03.113-.03.047 0 .087.017.12.05a.16.16 0 01.05.117c0 .06-.031.114-.093.163a.977.977 0 01-.567.183.993.993 0 01-.49-.116.82.82 0 01-.32-.32.947.947 0 01-.113-.463c0-.192.04-.36.12-.504a.84.84 0 01.736-.446.77.77 0 01.414.12.893.893 0 01.43.763zm-.844-.517c-.258 0-.41.121-.456.364h.873V6.39a.344.344 0 00-.137-.24.432.432 0 00-.28-.1zM13.284 5.684a.194.194 0 01.2.203v1.41a.206.206 0 01-.056.147.194.194 0 01-.144.056.194.194 0 01-.143-.056.213.213 0 01-.056-.144.698.698 0 01-.227.167.681.681 0 01-.297.067.77.77 0 01-.416-.117.856.856 0 01-.297-.33 1.038 1.038 0 01-.107-.477c0-.178.036-.336.107-.476a.81.81 0 01.29-.33.743.743 0 01.41-.12c.107 0 .207.02.3.06a.762.762 0 01.236.146v-.003c0-.058.02-.106.057-.143a.189.189 0 01.143-.06zm-.673 1.483a.447.447 0 00.353-.157.594.594 0 00.137-.4.594.594 0 00-.137-.4.443.443 0 00-.353-.16.44.44 0 00-.35.16.594.594 0 00-.136.4c0 .16.044.294.133.4a.447.447 0 00.353.157zM15.209 5.717c.058 0 .105.02.143.06a.194.194 0 01.057.143v.847c0 .24-.067.428-.2.563-.131.136-.32.204-.564.204-.244 0-.432-.068-.563-.204-.131-.135-.197-.323-.197-.563V5.92c0-.058.02-.105.057-.143a.189.189 0 01.143-.06c.058 0 .106.02.144.06a.194.194 0 01.056.143v.847c0 .135.03.237.09.303.06.065.15.097.27.097.123 0 .214-.032.274-.097.06-.066.09-.168.09-.303V5.92c0-.058.019-.105.056-.143a.189.189 0 01.144-.06z" fill="#FBF9FA"/><path fill-rule="evenodd" clip-rule="evenodd" d="M10 18.75a8.75 8.75 0 100-17.5 8.75 8.75 0 000 17.5zM10 20c5.523 0 10-4.477 10-10S15.523 0 10 0 0 4.477 0 10s4.477 10 10 10z" fill="#FBF9FA"/><path d="M9.807 13.778c.07.093.105.201.105.324a.483.483 0 01-.166.376c-.111.1-.23.149-.359.149a.524.524 0 01-.429-.228l-1.557-2.073-1.514 2.056c-.117.163-.262.245-.437.245a.454.454 0 01-.333-.14.445.445 0 01-.14-.324c0-.128.044-.248.131-.359l1.689-2.283-1.689-2.24a.5.5 0 01.053-.691.523.523 0 01.367-.158c.17 0 .312.076.43.227l1.539 2.048 1.505-2.004a.597.597 0 01.201-.184.431.431 0 01.228-.07c.128 0 .242.053.341.158.1.099.149.21.149.332a.51.51 0 01-.114.315l-1.706 2.25 1.706 2.274zM14.254 13.62a.475.475 0 01.49.49.464.464 0 01-.14.342.492.492 0 01-.35.131H11.28a.468.468 0 01-.358-.14.503.503 0 01-.132-.359c0-.146.053-.274.158-.385l1.907-2.038c.216-.234.385-.467.508-.7.128-.24.192-.458.192-.657a.948.948 0 00-.28-.682.876.876 0 00-.647-.289.93.93 0 00-.516.175c-.17.11-.324.26-.464.446a.483.483 0 01-.403.21.529.529 0 01-.358-.148.449.449 0 01-.158-.333.47.47 0 01.088-.262c.058-.094.145-.199.262-.315.222-.222.479-.4.77-.534a2.043 2.043 0 011.855.044c.292.163.516.388.674.673.157.286.236.61.236.972 0 .355-.096.723-.289 1.102-.186.373-.44.732-.76 1.076l-1.112 1.182h1.802z" fill="#FBF9FA"/></svg>
